icons/raster-function-template-play-24.svg

<?xml version="1.0" encoding="UTF-8"?><svg id="icons" xmlns="http://www.w3.org/2000/svg" viewBox="0 0 24 24"><defs><style>.cls-1{fill:none;}.cls-1,.cls-2{stroke-width:0px;}</style></defs><rect class="cls-1" width="24" height="24"/><path class="cls-2" d="m5.03313,6.93512h-1.80444l-.78172,6.06488h-1.23553l.78172-6.06488H.37956l.14337-.93512h1.6145l.29317-1.89062c.2511-1.80444,1.06018-3.08655,3.05365-3.08655.31689,0,.69861.06396.91779.18994l-.33148,1.10864c-.25391-.09595-.52234-.15887-.80823-.15887-1.28302,0-1.45648.93323-1.64557,2.21625l-.24379,1.62122h1.80353l-.14337.93512Zm8.02608-.93512h-1.51776l-1.83332,2.20575-1.322-2.20575h-1.63184l1.91459,2.9729-3.62891,4.0271h1.54962l2.78156-3.229,1.91864,3.229h1.64636l-2.52667-4.0271,2.64972-2.9729Zm7.94079,0h-5.89569l-.89124,1h6.78693v6.80261l1,.81262V2h-13.81024l-.29895,1h13.10919v3Zm-5,14H3v-6h-1v7h14v-1Zm1,3.94971l6.70703-5.44873-6.70703-5.4502v10.89893Z"/></svg>

<svg xmlns="http://www.w3.org/2000/svg" viewBox="0 0 24 24"><path stroke-width="0" fill="none" d="M0 0h24v24H0z"/><path d="M5.033 6.935H3.23L2.447 13H1.211l.782-6.065H.38L.523 6h1.614l.294-1.89c.25-1.805 1.06-3.087 3.053-3.087.317 0 .699.064.918.19L6.071 2.32a2.273 2.273 0 0 0-.809-.158c-1.283 0-1.456.933-1.645 2.216L3.373 6h1.803l-.143.935zM13.06 6h-1.518L9.708 8.206 8.386 6H6.754L8.67 8.973 5.04 13h1.55l2.78-3.229L11.29 13h1.646L10.41 8.973 13.06 6zM21 6h-5.896l-.89 1H21v6.803l1 .812V2H8.19l-.3 1H21v3zm-5 14H3v-6H2v7h14v-1zm1 3.95l6.707-5.449L17 13.051V23.95z" stroke-width="0"/></svg>
